X:1
T:Title
%%score { ( 1 4 ) | ( 2 3 ) }
L:1/8
M:4/4
K:Bb
V:1 treble nm="Grand Piano"
V:4 treble 
V:2 bass 
V:3 bass 
V:1
 z4 z2 z[Q:1/4=100] [DF] | [DB]2 [EB]2 [DB]3 [B,DF] | [B,EG]2 [B,EB]2 [DF]3 [B,DF] | %3
 [B,EG]2 .[=B,FG]2 [Ec]2 [EB]2 |[M:7/8] A2 G2 F3 |[M:1/8] F |[M:4/4] [DB]2 [EB]2 [DB]3 [DF] | %7
 [EG]AG-[Gc] [^Fd]3 [Fd] | [Fd]2 [Fd]2 [Ge]2 [Fd]2 |[M:7/8] [Fc]2 [=Ec]2 [_Ec]3 |[M:1/4] [EF]2 | %11
[M:4/4] B6 z2 | [Ec]6 z2 | [Fd]2 [Fd]2 [Ge]2 [Fd]2 | z2 .G2 c2 F2 | B6 z2 | [Ec]6 z2 | %17
 [Fd]2 [_Af]2 [Gf]2 [Ge]2 | z4 c4 |[M:3/4] [DB]6 |] %20
V:2
 z4 z2 z [B,,B,] | [B,,F,]2 [B,,F,]2 [B,,F,]3 B,, | E,2 G,2 B,3 B,, | E,2 z G, [C,G,]2 [C,C]2 | %4
[M:7/8] [F,CE]2 [G,CE]2 [A,CE]3 |[M:1/8] [F,A,E] |[M:4/4] [B,,B,]2 [B,,G,]2 [B,,F,]3 [B,,B,] | %7
 z F z G, [D,A,]3 [C,A,] | [B,,B,]2 [B,,B,]2 [B,,B,]2 [B,,B,]2 |[M:7/8] [C,A,]2 [G,B,]2 [F,A,]3 | %10
[M:1/4] [C,F,]2 |[M:4/4] F,2 B,4 z2 | [F,A,]G,A,G, F,2 E,C, | [B,,B,]2 [B,,B,]2 [B,,B,]2 [B,,B,]2 | %14
 z[K:treble] c[K:bass] C,2 .[F,A,F]2 [D,B,][C,F,] | F,2 B,4 z2 | [F,A,]G,A,G, F,2 F,C, | %17
 [B,,B,]2 [D,B,]2 [E,B,]2 [E,B,]2 | [F,B,F]4 E4 |[M:3/4] [B,,F,]6 |] %20
V:3
 x8 | x8 | x8 | z2 D,2 z4 |[M:7/8] x7 |[M:1/8] x |[M:4/4] x8 | [E,B,]2 E,2 z4 | x8 |[M:7/8] x7 | %10
[M:1/4] x2 |[M:4/4] B,,C,D,C, B,,2 D,F, | x8 | x8 | [C,B,]2[K:treble][K:bass] z2 z4 | %15
 B,,C,D,C, B,,2 D,F, | x8 | x8 | z4 [F,A,]2 z2 |[M:3/4] x6 |] %20
V:4
 x8 | x8 | x8 | x8 |[M:7/8] x7 |[M:1/8] x |[M:4/4] x8 | z2 .[B,B]2 z4 | x8 |[M:7/8] x7 | %10
[M:1/4] x2 |[M:4/4] DEFE D2 [B,DF]2 | z B,CB, A,2 [A,F]2 | x8 | .[=Ed]2 [B,E]-[B,Ed] z E, z E | %15
 DEFE D2 [B,F]2 | z B,CB, A,2 [A,F]2 | x8 | d4 z2 F,2 |[M:3/4] x6 |] %20

